src/assets/icons/email.svg

<svg width="34" height="24" viewBox="0 0 34 24" fill="none" xmlns="http://www.w3.org/2000/svg">
<rect x="0.5" y="0.5" width="33" height="23" rx="2.5" fill="#FCECEA" stroke="#F5C0B8"/>
<path d="M17.1504 6.59473C13.7324 6.59473 11.374 8.91895 11.374 12.2959C11.374 15.7344 13.7051 17.9902 17.2666 17.9902C17.9912 17.9902 18.6953 17.9014 19.2285 17.7373V16.6436C18.8457 16.7871 18.1006 16.8828 17.3691 16.8828C14.4639 16.8828 12.625 15.1191 12.625 12.3301C12.625 9.58887 14.4639 7.68164 17.1094 7.68164C19.707 7.68164 21.416 9.30176 21.416 11.7764C21.416 13.1846 20.9717 14.0869 20.2812 14.0869C19.8643 14.0869 19.625 13.7998 19.625 13.3145V9.65723H18.2441V10.4775H18.1211C17.8477 9.86914 17.2529 9.50684 16.5215 9.50684C15.1543 9.50684 14.2246 10.6416 14.2246 12.3027C14.2246 14.0391 15.168 15.1943 16.5898 15.1943C17.3828 15.1943 17.9434 14.832 18.2305 14.1416H18.3535C18.5039 14.7979 19.126 15.2148 19.9805 15.2148C21.6348 15.2148 22.667 13.8477 22.667 11.6738C22.667 8.65918 20.4248 6.59473 17.1504 6.59473ZM16.9316 10.751C17.6562 10.751 18.1143 11.3594 18.1143 12.3438C18.1143 13.3281 17.6562 13.9365 16.9248 13.9365C16.207 13.9365 15.7764 13.335 15.7764 12.3438C15.7764 11.3457 16.207 10.751 16.9316 10.751Z" fill="#B72B1A"/>
</svg>

<svg width="34" height="24" fill="none" xmlns="http://www.w3.org/2000/svg"><rect x=".5" y=".5" width="33" height="23" rx="2.5" fill="#FCECEA" stroke="#F5C0B8"/><path d="M17.15 6.595c-3.418 0-5.776 2.324-5.776 5.7 0 3.44 2.331 5.695 5.893 5.695.724 0 1.428-.089 1.962-.253v-1.093c-.383.143-1.128.239-1.86.239-2.905 0-4.744-1.764-4.744-4.553 0-2.741 1.839-4.648 4.484-4.648 2.598 0 4.307 1.62 4.307 4.094 0 1.409-.444 2.31-1.135 2.31-.417 0-.656-.286-.656-.771V9.657h-1.38v.82h-.124c-.273-.608-.868-.97-1.6-.97-1.367 0-2.296 1.135-2.296 2.796 0 1.736.943 2.891 2.365 2.891.793 0 1.353-.362 1.64-1.052h.123c.15.656.773 1.073 1.627 1.073 1.655 0 2.687-1.367 2.687-3.541 0-3.015-2.242-5.08-5.517-5.08zm-.218 4.156c.724 0 1.182.608 1.182 1.593 0 .984-.458 1.593-1.19 1.593-.717 0-1.148-.602-1.148-1.593 0-.998.431-1.593 1.156-1.593z" fill="#B72B1A"/></svg>
